X: 23146
T: Le 24 Juin
R: reel
M: 4/4
K: Gmajor
G2A2|:B2dB A2BA|GABG E2DB,|G,B,DG B2cB|ABcA F2AB|c2ec B2dB|
ABcA (3FGF E2|1 DEFG ABcd|efge dcBA:|2 fedB cAFD|GBAF G2E2||
K: Gmin
|:DGGA B2Bd|d^cde dcBA|G^FGA B2Bd|d^cde d2d2|dccd c2c2|
cBBc B2B2|1 BAAA BAAA|d2c2 B2A2:|2 BAAA dcBA|G=BA^F G2A2||

